X: 592
T: Huntsmen’s Chorus
B: good tune book
B: tunes
M:4/4
R: barndance
Q: 1/4=100
K:Gmajor
V:1 
|:D2|G2 D2 GABc|d4 B4|A2 d2 A2 d2|BcBA G2 D2|
 G2 D2 GABc|d4 c4|BAGA B2 A2|G6:|
 |:A2|B3B B2 A2|G4 G4|c3c c2 B2|A2 F2 E2 D2|
 G2 D2 GABc|d4 c4|BAGA B2 A2|G6:|
% abcbook-tune_id 63dce452dfad2f2ab5fcba9e
% abcbook-tune_composer_id 
% abcbook-link-0 https://www.youtube.com/watch?v=r1cAT9_t7mQ
% abcbook-link-title-0 Huntsmen&#39;s Chorus
% abcbook-boost 0
% abcbook-difficulty 0
% abcbook-tags good tune book
% abcbook-tablature 
% abcbook-transpose 
% abcbook-tuning 
% abcbook-lastupdated 1675431654497
% abcbook-soundfonts 
% abcbook-repeats 1


